X:1
T:Title
%%score { 1 | 2 }
L:1/8
M:6/8
K:Ab
V:1 treble nm="Grand Piano"
V:2 bass 
V:1
 z3 z2[Q:1/4=78] [CE]/[CE]/ | [CE][CF][CG] [CA][DB][Ec] | d2 G G2 E/E/ | EFG Bc[Gd] | %4
 e2 c c2 [CE] | [CE][CF][CG] [CA][DB][Ec] |[M:5/8] [Fd]>FF F2 |[M:1/8] =E/F/ | %8
[M:3/4] [=DB]>[DF] [DF][DF] [EG][DA] |[M:3/8] B3 |[M:2/4] c3 B | %11
[M:3/4] [CA]>[CG] [CA][CE] [CF][CA] | A<G _G =G2 G | B<=A BF GF | [DF][CE]- [CE]3 [Ec] | %15
 [=Ec]>[EG] [EG][EG] [_E_G][=E=G] | [GB][FA] [_GA] [FA]2 F |[M:13/16] E[Ee]3/2[Fd]cBA | %18
[M:5/8] [GB]3 A2 |] %19
V:2
 z3 z2 [A,,A,]/[A,,A,]/ | [A,,A,][A,,A,][A,,A,] [A,,A,][A,,A,][A,,A,] | %2
 [E,G,E]2 [E,B,D] [E,B,D]2 [E,G,D]/[E,G,D]/ | [E,G,D][E,A,D][E,B,D] [E,G,D][E,A,E][E,B,] | %4
 [A,CA]2 [A,EA] [A,EA]2[K:bass] [A,,A,] | [A,,A,][A,,A,][A,,A,] [A,,A,][A,,A,][A,,A,] | %6
[M:5/8] [D,A,]>[D,A,D][D,A,D] [D,A,D]2 |[M:1/8] [D,G,D]/[D,A,D]/ | %8
[M:3/4] [B,,B,]>[B,,A,] [B,,A,][B,,A,] [B,,G,][B,,F,] |[M:3/8] [E,G,D]3 |[M:2/4] [E,A,E]3 [E,G,D] | %11
[M:3/4] [A,,A,]>[A,,A,] [A,,A,][A,,A,] [A,,A,][A,,A,] | [E,B,D]<[E,B,D] [E,=A,D] [E,B,D]2 [E,B,D] | %13
 [E,G,D]<[E,_G,D] [E,=G,D][E,B,D] [E,B,D][E,B,D] | [A,,A,][A,,A,]- [A,,A,]3 [A,,A,] | %15
 [C,G,]>[C,C] [C,C][C,C] [C,C][C,C] | [=E,C][F,C] [_E,C] [D,D]2 [D,A,D] | %17
[M:13/16] [C,A,][C,A,]3/2[D,A,][E,A,E][E,DE][E,CE] |[M:5/8] [E,D]3 [A,C]2 |] %19

